X: 1134
T: Rosie Finn's Favourite / Biddy The Darling
M: 12/8
L: 1/8
R: slide
K: G Major
|: gdB |
G2 B d2 g b2 g d2 B | cBc agf gfe dBA |
G2 B d2 g b2 g d2 B | cBc agf g3 :|
|: -g2 d |
g2 b c'2 b a2 e ege | faf dd/e/f gfe dB/c/d |
g2 b c'2 b a2 e ege | faf def g3 :|
